pics/Pictures/streamdeck/video-play-pause-svgrepo-com.svg

<?xml version="1.0" encoding="UTF-8"?>
<svg width="800px" height="800px" viewBox="0 0 24 24" version="1.1" xmlns="http://www.w3.org/2000/svg" xmlns:xlink="http://www.w3.org/1999/xlink">
    <!-- Uploaded to: SVG Repo, www.svgrepo.com, Generator: SVG Repo Mixer Tools -->
    <title>ic_fluent_video_play_pause_24_filled</title>
    <desc>Created with Sketch.</desc>
    <g id="🔍-Product-Icons" stroke="none" stroke-width="1" fill="none" fill-rule="evenodd">
        <g id="ic_fluent_video_play_pause_24_filled" fill="#212121" fill-rule="nonzero">
            <path d="M3.65140982,6.61646219 L11.1528787,11.3693959 C11.3672679,11.5052331 11.4827597,11.722675 11.4993749,11.9464385 L11.4984593,7.25 C11.4984593,6.83578644 11.8342458,6.5 12.2484593,6.5 L15.2484593,6.5 C15.6626729,6.5 15.9984593,6.83578644 15.9984593,7.25 L15.9984593,16.75 C15.9984593,17.1642136 15.6626729,17.5 15.2484593,17.5 L12.2484593,17.5 C11.8342458,17.5 11.4984593,17.1642136 11.4984593,16.75 L11.4993494,12.0597632 C11.4826318,12.2835468 11.3670166,12.5009613 11.1525249,12.6366956 L3.65105604,17.3837618 C3.15168144,17.6997752 2.5,17.3409648 2.5,16.75 L2.5,7.25 C2.5,6.65884683 3.15205264,6.30006928 3.65140982,6.61646219 Z M21.2477085,6.50037474 C21.661922,6.50037474 21.9977085,6.83616118 21.9977085,7.25037474 L21.9977085,16.7496253 C21.9977085,17.1638388 21.661922,17.4996253 21.2477085,17.4996253 L18.2477085,17.4996253 C17.8334949,17.4996253 17.4977085,17.1638388 17.4977085,16.7496253 L17.4977085,7.25037474 C17.4977085,6.83616118 17.8334949,6.50037474 18.2477085,6.50037474 L21.2477085,6.50037474 Z" id="🎨-Color">
</path>
        </g>
    </g>
</svg>

<?xml version="1.0" encoding="UTF-8" standalone="no"?>
<svg
   width="800px"
   height="800px"
   viewBox="0 0 24 24"
   version="1.1"
   id="svg5016"
   sodipodi:docname="video-play-pause-svgrepo-com.svg"
   inkscape:version="1.2.2 (b0a8486541, 2022-12-01)"
   xmlns:inkscape="http://www.inkscape.org/namespaces/inkscape"
   xmlns:sodipodi="http://sodipodi.sourceforge.net/DTD/sodipodi-0.dtd"
   xmlns="http://www.w3.org/2000/svg"
   xmlns:svg="http://www.w3.org/2000/svg">
  <defs
     id="defs5020" />
  <sodipodi:namedview
     id="namedview5018"
     pagecolor="#ffffff"
     bordercolor="#000000"
     borderopacity="0.25"
     inkscape:showpageshadow="2"
     inkscape:pageopacity="0.0"
     inkscape:pagecheckerboard="0"
     inkscape:deskcolor="#d1d1d1"
     showgrid="false"
     inkscape:zoom="1.2525"
     inkscape:cx="400"
     inkscape:cy="400"
     inkscape:window-width="1452"
     inkscape:window-height="1205"
     inkscape:window-x="3114"
     inkscape:window-y="493"
     inkscape:window-maximized="0"
     inkscape:current-layer="svg5016" />
  <!-- Uploaded to: SVG Repo, www.svgrepo.com, Generator: SVG Repo Mixer Tools -->
  <title
     id="title5009">ic_fluent_video_play_pause_24_filled</title>
  <desc
     id="desc5011">Created with Sketch.</desc>
  <g
     id="ic_fluent_video_play_pause_24_filled"
     fill="#212121"
     fill-rule="nonzero"
     style="stroke:none;stroke-width:1;fill:#ef4565">
    <path
       d="m 3.6514098,6.6164622 7.5014692,4.7529338 c 0.214389,0.135837 0.329881,0.353279 0.346496,0.577042 L 11.498459,7.25 c 0,-0.4142136 0.335787,-0.75 0.75,-0.75 h 3 c 0.414214,0 0.75,0.3357864 0.75,0.75 v 9.5 c 0,0.414214 -0.335786,0.75 -0.75,0.75 h -3 c -0.414213,0 -0.75,-0.335786 -0.75,-0.75 l 8.9e-4,-4.690237 c -0.01672,0.223784 -0.132332,0.441198 -0.346824,0.576933 L 3.651056,17.383762 C 3.1516814,17.699775 2.5,17.340965 2.5,16.75 V 7.25 C 2.5,6.6588468 3.1520526,6.3000693 3.6514098,6.6164622 Z M 21.247709,6.5003747 c 0.414213,0 0.75,0.3357865 0.75,0.75 v 9.4992503 c 0,0.414214 -0.335787,0.75 -0.75,0.75 h -3 c -0.414214,0 -0.75,-0.335786 -0.75,-0.75 V 7.2503747 c 0,-0.4142135 0.335786,-0.75 0.75,-0.75 z"
       id="🎨-Color"
       style="fill:#ef4565" />
  </g>
</svg>
